X:1
T:Соната
T:Соната
T:Д. Чимароза
C:Д. Чимароза
%%score { 1 | 2 }
L:1/8
Q:1/4=94
M:3/4
K:Bb
V:1 treble nm="Piano" snm="Pno."
V:2 bass 
V:1
!mf!"^Andantino" (!3!d>!4!e !3!d)(.!1!A.!3!B.!4!c) | (!3!B>!5!c !4!B)(.!2!^F.G.A) | %2
 (!3!G>!4!A !3!G)(.!2!E.!1!D.!2!^C) |!>(! !3!D2 z2 z2!>)! |!p! (!3!d>e d)(.!1!A.B.c) | %5
 (!3!B>!5!c !4!B)(.!2!^F.!1!G.!2!A) | (!3!B/A/G/A/ B)(.d.!2!^F.!4!A) | !3!G2 !1!G,2 z2 | %8
!mf! (!4!f>g f)(.c.d.e) | (f>g f)(.c.d.e) |!<(! (!1!f!2!g/!3!a/ !4!b!3!a!2!g!1!f | %11
 !3!f!4!g!1!d!3!f !2!e2)!<)! |!p! (!3!e>f e)(.!1!c.d.e) | (e>f e)(.c.d.e) | %14
!<(! (!3!ef/g/ fe !1!d!2!^c!<)! | !3!^c!4!d) z!<(! (!2!f{/a}!3!g!2!f!<)! | %16
!mf! .!1!!5![db])!>(!.[db]!>)! z (!4!fed | .!1!c).!2!c z!<(! (!1!c{/e}dc!<)! | %18
!>(! .[ec']).[ec'] z!>)! (!4!gfe | .!1!d).!2!d z!p! (!2!d{/f}e!2!d | .!1!!5![db]).[db] z (d{/f}ed | %21
!<(! .!1!c).!2!c z (c{/e}dc) | .c.c z (c{/=e}dc)!<)! |!f! !4!c2 !tenuto!!1!!5![A,F]2 z2 | %24
!f!({fga} !4!b3/2!>(!a/4g/4 .f)(.!3!d.!4!e.!2!c)!>)! |!p!({fga} b3/2a/4g/4 .f)(.d.e.c) | %26
 !1!d(!4!bag!<(!!1!f!2!=e | !3!f)(!3!f/>!4!g/ !2!e)(!3!e/>!4!f/ !2!d)(!3!d/>e/!<)! | %28
!>(! !1!=B!2!c)!>)! z!<(! (!1!cde!<)! |!>(! !tenuto!!4!f>g !1!B2) !2!A2!>)! |!>(! !3!B2 z2 z2!>)! | %31
{FGA} (!4!B3/2A/4G/4 .F)(.!3!D.E.C) |{FGA} (B3/2A/4G/4 .F)(.D.E.C) | D(!4!b ag f=e | %34
!<(! f)(!3!f/>g/ e)(!3!e/>f/ d)(!3!d/>e/!<)! | =Bc) z!<(! (cde!<)! | %36
!>(! !tenuto!f>g !1!B2) !2!A2!>)! | B2 z!p! (!4![db]!<(!!5![fd']!4![db] | %38
 .[fd']).[fd']!<)! z!p! ([db][fd'][db] | [fd']2) !tenuto!!1!!4![DB]2 !tenuto![DB]2 | %40
 !tenuto![DB]4 z2 |!mf! (!3!d>e d)(.!1!A.B.c) | (!3!B>!5!c !4!B)(.!2!^F.G.A) | (G>A G)(.E.D.^C) | %44
!>(! D2 z2 z2!>)! |!p! (d>e d)(.A.B.c) | (B>c B)(.^F.G.A) |!<(! (B/A/G/A/!<)!!>(! B)(.d.^F.A)!>)! | %48
 G2 z2 z2 |!p!"_dolce" (!1!!4![d=b]3"_marc." !1!!5![ec']!1!!4![db][ec'] | [d=b]2) z2 z2 | %51
!p! ([D=B]3 [Ec][DB][Ec] |!>(! [D=B]2) z2 z2!>)! |!f! (!3!c'/!2!=b/c'/b/ c') (.!1!c.!2!e.!1!c) | %54
 (!3!_a/g/a/g/ a) (.!1!d.f.d | .!2!e.!5!g .!3!e.!1!c .!4!d.!2!=B |!>(! !3!c2) z2 z2!>)! | %57
 [A,F]2 z2 z2 |"_dolce" (!1!!4![ca]3 !1!!5![db]!1!!4![ca][db] | [ca]2) z2 z2 | %60
 ([CA]3 [DB][CA][DB] |!>(! [CA]2) z2 z2!>)! |!f! (!3!b/a/b/a/ b) .!2!B.!4!d.B | %63
 (g/^f/g/f/ g) (.!2!c.e.c | .!3!d.f.d.!2!B.!3!c.A | B2) z2 z2 |!mf! !2!g2 z{!1!ga} (!3!bag | %67
 !2!^f)!>(!(.!5!c'.!3!b.!2!a.!1!g.!2!f | .!3!g2)!>)! z!p!{ga} (bag | ^f)(.c'.b.a.g.f) | %70
!mf! (!4!g3/2"_marc."f/4e/4 d)!>(! (.!2!B.c.A)!>)! |!p! (g3/2f/4e/4 d) (.B.c.A) | %72
!<(! (.!3!B.!5!d.!3!B!<)!!>(!.!1!G.!4!A.!2!^F!>)! | !3!G2) z2 z2 | %74
!mf! (!4!G3/2"_marc."F/4E/4 D) (.!2!B,.C.A,) |!p! (!4!G3/2F/4E/4 D) (.!2!B,.C.A, | %76
!<(! !2!B,) (!3!ba!1!g!2!^f!5!g) | (!4!f/e/!2!d/c/!<)!!>(! .!2!!4![GB]2 .!2!!4![^FA]2 | %78
 !3!G2)!>)! z (!4![Bg]!5![db]!4![Bg] | .[db]).[db] z"_marc." ([B,G][DB][B,G] | %80
"_dim." [DB]2) .!tenuto![B,G]2 .!tenuto![B,G]2 | !tenuto![B,G]4 !fermata!z2 |] %82
V:2
 !2!G,2 z (.!3!^F,.!2!G,.!1!A,) | !2!G,2 z (.!4!D,.D,.D,) | E,2 z (.!2!E,.!1!D,.!2!^C,) | %3
 (!1!D,>E, !1!D,)(.!2!C,.!3!B,,.A,,) | !5!G,,2 z (.!3!^F,.G,.A,) | G,2 z (.!4!D,.D,.D,) | %6
 E,2 z (.!2!B,.D.D,) | G,2 !5!G,,2 z2 | !3!!1![B,D]2 z (.!4!A,.!3!B,.!2!C) | [B,D]2 z (.A,.B,.C) | %10
 [B,D]2 [B,D]2 [B,D]2 | !2!!1![=B,D]2 [B,D]2 [C,C]2 | %12
 !3!!1![A,C]2 z (.!5!!3![F,A,].!5!!2![F,B,].!5!!1![F,C]) | [F,C]2 z (.[F,A,].[F,B,].[F,C]) | %14
 [A,C]2 [F,A,]2 [F,A,]2 | B,2 B,,2 z2 | !5![D,B,]2 [D,B,]2 [D,B,]2 | !4![E,B,]2 [E,B,]2 [E,B,]2 | %18
 !3![F,A,]2 [F,A,]2 [F,A,]2 | !2!!1![G,B,]2 [G,B,]2 [G,B,]2 | !5!!1![D,B,]2 [D,B,]2 [D,B,]2 | %21
 !4!!1![E,B,]2 [E,B,]2 [E,B,]2 | [=E,B,]2 [E,B,]2 [E,B,]2 | [F,A,]2 !tenuto!F,,2 z2 | %24
 !3!!1![B,D]2 z (.!3!B,.!2!C.!4!A,) | [B,D]2 z (.B,.C.A,) | B,2 z2 z2 | !2!A z G z !1!F z | %28
 !2!E z E z E z | (!3!D>E) F2[K:bass] !5!F,2 | !4!G,(.!1!G,.F,.G,.F,.E, | %31
 D,2) z (.!3!B,,.!2!C,.!4!A,,) | !3!!1![B,,D,]2 z (.B,,.C,.A,,) | B,,2 z2 z2 | %34
 .!2!A, z .!3!G, z .!1!F, z | !2!E, z E, z E, z | (!3!D,>!2!E, F,2) F,,2 | %37
 .B,,.B, .B,,.B, .B,,.B, | .B,,.B, .B,,.B, .B,,.B, | !tenuto!B,,2 (!tenuto!!4!B,,2 !tenuto!B,,2 | %40
 !tenuto!B,,4) z2 | !2!G,2 z (.!3!^F,.G,.A,) | G,2 z (.!4!D,.D,.D,) | E,2 z (.!2!E,.!1!D,.!2!^C,) | %44
 (!1!D,>E, D,)(.C,.B,,.A,,) | G,,2 z (.^F,.G,.A,) | G,2 z (.D,.D,.D,) | E,2 z (.B,.D.D,) | %48
 .!3!G,.!2!G,.!1!G,.!2!G,.!1!G,.!2!G, | .G,.G,.G,.G,.G,.G, | .G,.G,.G,.G,.G,.G, | %51
 .G,.G,.G,.G,.G,.G, | (!3!G,_A,!1!G,!2!F,!3!E,!4!D, | E,3) (.!3!E,.!2!E,.!3!E,) | %54
 !1!F,3 (.F,.F,.F, | G,2) (G,2 G,,2 | C,)(!1!C/!2!D/ .!1!C).!3!B,.!1!A,.!2!G, | %57
 .!3!F,.!2!F,.!1!F,.!2!F,.!1!F,.!2!F, | .F,.F,.F,.F,.F,.F, | .F,.F,.F,.F,.F,.F, | %60
 .F,.F,.F,.F,.F,.F, | (!3!F,!2!G,!1!F,E,D,C, | D,3) .D,.D,.D, | E,3 .E,.E,.E, | F,2 F,2 F,,2 | %65
 !3!!1![B,D][B,D][B,D][B,D][B,D][B,D] | [B,D][B,D][B,D][B,D][B,D][B,D] | %67
 [B,D][B,D][B,D][B,D][B,D][B,D] | [B,D][B,D][B,D][B,D][B,D][B,D] | [CE][CE][CE][CE][CE][CE] | %70
 [B,D]2 z (.!2!G,.A,.^F,) | G,2 z (.G,.A,.^F,) | G,2 !1!G,2 !4!D,2 | %73
 !3!E, (!2!E,!3!D,!2!E,!1!D,C, | B,,2) z (.!2!G,.!3!A,.!1!^F,) | !2!G,2 z (.G,.A,.^F, | %76
 G,2) z2 (B,2 | C2 .!tenuto!D2 .!tenuto!D,2) | .G,,.G,.G,,.G,.G,,.G, | .G,,.G,.G,,.G,.G,,.G, | %80
 G,,2 .!tenuto!G,,2 .!tenuto!G,,2 | !tenuto!G,,4 !fermata!z2 |] %82

